!!!Genre:	Ange
!!!Mode:	Major
!!!Listening/dance:	dance
!!!One_Mode:	no
**kern
*I"P1
*clefG2
*k[f#]
*G:
*M2/4
*>A
=1
(4.bt
8g)
=2
(4.bt
8g)
=3
(8.btL
16gJk)
(8.btL
16gJk)
=4
(8.btL
16gJk)
(8.btL
16gJk)
=5
16ddLL
16cc
16b
16aJJ
8bL
8gJ
=6
16ddLL
16cc
16b
16aJJ
8bL
8gJ
=7
(16ddLL
16cc)
16b
16aJJ
(16bLL
16cc)
16dd
16eeJJ
=8
(16ddLL
16cc)
16b
16aJJ
8btL
8gJ
=9!|:
*>B
8.dL
16gJk
8bL
8ddJ
=10
(8qdd/
8ccL)
8bJ
8aL
8bJ
=11
8.dL
16gJk
8bL
8ddJ
=12
8ccL
8aJ
4g
=13:|!
*>bM
*C:
*>C
2gg
=14
(8qff#/
2gg)
=15
(8qff#/
4gg)
(8qff#/
4gg)
=16
(8qff#/
4gg)
(8qff#/
4gg)
=17
16ggLL
16ffn
16ee
16ddJJ
8eetL
8ccJ
=18
16ggLL
16ffn
16ee
16ddJJ
8eeL
8ccJ
=19
16ggLL
16ffn
16ee
16ddJJ
16eeLL
16ff
16gg
16aaJJ
=20
16ggLL
16ffn
16ee
16ddJJ
8eetL
8ccJ
*>eM
==
*-
